X: 20822
T: OPERA HORNPIPE
%R: hornpipe, reel
B: W. Hamilton "Universal Tune-Book" Vol. 2 Glasgow 1846 p.82 #2
S: http://s3-eu-west-1.amazonaws.com/itma.dl.printmaterial/book_pdfs/hamiltonvol2web.pdf
Z: 2016 John Chambers <jc:trillian.mit.edu>
M: C
L: 1/8
K: C
% - - - - - - - - - - - - - - - - - - - - - - - - -
G2 |\
c2c2 d>BG>B | c2c2 d>BG>B | c2c2 d>cB>c | d2g2 g2z2 |\
c2c2 d>BG>B | c2c2 d>BG>B | c2c2 d>cd>B | c2e2 c2 :|
B>c |\
d2d2 d>BG>B | d2d2 d2d>e | f2f2 f>dB>d | f2f2 f2f>g |\
a2a>g f2f>e | d2d>c B2B>A | G>A>G^F G>AG>F | G2g2 "^D.C."g2 |]
% - - - - - - - - - - - - - - - - - - - - - - - - -

%%sep 1 1 500
%%sep 1 1 500

